X: 41
T: Nancy's Fancy
% Nottingham Music Database
M: 4/4
L: 1/4
Q: 1/4=220
K: G
D|"G"GB BA/2B/2|"Am"cA "D7"Ad|"G"BG "Em"GB|"A7"A/2G/2F/2E/2 "D"DD|"G"GB BA/2B/2|\
"Am"cA "D7"Ad|
"G"BG "D7"AF|"G"G2G:|g|"Em"fe dc|"G"BA GB|dg dB|B2 Ad|"C"fe dc|
"G"BA Bc|"D7"dg fd|"G"g2g||z|"Em"BB B/2A/2B|"Am"cc c/2B/2c|"G"BB B/2A/2B|
"D7"A/2G/2F/2E/2 D2|"G"BB B/2A/2B|"C"cc c/2B/2c|"G"BG "D7"AF|"G"G2G||
%%newpage
%%textfont * 14
%%begintext justify
%%?? Bar Reel
%%endtext
